flaticon/emoticons/winking.svg

<svg xmlns="http://www.w3.org/2000/svg" width="32" height="32" viewBox="0 0 24 24">
    <path d="M 18.546875 8.453125 C 18.546875 9.507812 17.691406 10.363281 16.636719 10.363281 C 15.582031 10.363281 14.726562 9.507812 14.726562 8.453125 C 14.726562 7.398438 15.582031 6.546875 16.636719 6.546875 C 17.691406 6.546875 18.546875 7.398438 18.546875 8.453125 Z M 18.546875 8.453125"/>
    <path d="M 12 0 C 5.382812 0 0 5.382812 0 12 C 0 18.617188 5.382812 24 12 24 C 18.617188 24 24 18.617188 24 12 C 24 5.382812 18.617188 0 12 0 Z M 12 22.910156 C 5.984375 22.910156 1.089844 18.015625 1.089844 12 C 1.089844 5.984375 5.984375 1.089844 12 1.089844 C 18.015625 1.089844 22.910156 5.984375 22.910156 12 C 22.910156 18.015625 18.015625 22.910156 12 22.910156 Z M 12 22.910156"/>
    <path d="M18 13.089844C17.699219 13.089844 17.453125 13.335938 17.453125 13.636719 17.453125 16.644531 15.007812 19.089844 12 19.089844 8.992188 19.089844 6.546875 16.644531 6.546875 13.636719 6.546875 13.335938 6.300781 13.089844 6 13.089844 5.699219 13.089844 5.453125 13.335938 5.453125 13.636719 5.453125 17.246094 8.390625 20.183594 12 20.183594 15.609375 20.183594 18.546875 17.246094 18.546875 13.636719 18.546875 13.335938 18.300781 13.089844 18 13.089844zM9.273438 8.183594C9.273438 7.878906 9.027344 7.636719 8.726562 7.636719L4.910156 7.636719C4.609375 7.636719 4.363281 7.878906 4.363281 8.183594 4.363281 8.484375 4.609375 8.726562 4.910156 8.726562L8.726562 8.726562C9.027344 8.726562 9.273438 8.484375 9.273438 8.183594zM9.273438 8.183594"/>
</svg>

<svg xmlns="http://www.w3.org/2000/svg" width="32" height="32" viewBox="0 0 24 24">
    <path d="M18.547 8.453a1.91 1.91 0 0 1-3.82 0c0-1.055.855-1.906 1.91-1.906 1.054 0 1.91.851 1.91 1.906zm0 0"/>
    <path d="M12 0C5.383 0 0 5.383 0 12s5.383 12 12 12 12-5.383 12-12S18.617 0 12 0zm0 22.91C5.984 22.91 1.09 18.016 1.09 12S5.984 1.09 12 1.09 22.91 5.984 22.91 12 18.016 22.91 12 22.91zm0 0"/>
    <path d="M18 13.09c-.3 0-.547.246-.547.547A5.458 5.458 0 0 1 12 19.09a5.458 5.458 0 0 1-5.453-5.453c0-.301-.246-.547-.547-.547-.3 0-.547.246-.547.547A6.555 6.555 0 0 0 12 20.184a6.555 6.555 0 0 0 6.547-6.547c0-.301-.246-.547-.547-.547zm0 0M9.273 8.184a.546.546 0 0 0-.546-.547H4.91a.546.546 0 1 0 0 1.09h3.817c.3 0 .546-.243.546-.543zm0 0"/>
</svg>
